X:55
T:Blast of Wind, A
R:slip jig
Z:id:hn-slipjig-55
M:9/8
K:D
d3 dAG FED|d2d dAF GFE|ABc dAG FGA|=cBc E2F GFE:|
d2g fdf e^cA|d2g fdf gfe|d2g fdf eAB|=cBc E2F GFE|
d2g fdf e^cA|d2g fdf efg|afa ge^c dAB|=cBc E2F GFE||
